assets/icons/qvision/thumb_up_off_alt.svg

<svg xmlns="http://www.w3.org/2000/svg" height="24" viewBox="0 0 24 24" width="24"><path d="M0 0h24v24H0V0z" fill="none"/><path d="M13.11 5.72l-.57 2.89c-.12.59.04 1.2.42 1.66.38.46.94.73 1.54.73H20v1.08L17.43 18H9.34c-.18 0-.34-.16-.34-.34V9.82l4.11-4.1M14 2L7.59 8.41C7.21 8.79 7 9.3 7 9.83v7.83C7 18.95 8.05 20 9.34 20h8.1c.71 0 1.36-.37 1.72-.97l2.67-6.15c.11-.25.17-.52.17-.8V11c0-1.1-.9-2-2-2h-5.5l.92-4.65c.05-.22.02-.46-.08-.66-.23-.45-.52-.86-.88-1.22L14 2zM4 9H2v11h2c.55 0 1-.45 1-1v-9c0-.55-.45-1-1-1z"/></svg>

<svg width="24" height="24" viewBox="0 0 24 24" fill="none" xmlns="http://www.w3.org/2000/svg">
<g clip-path="url(#clip0_147_4882)">
<path d="M13.11 5.72L12.54 8.61C12.42 9.2 12.58 9.81 12.96 10.27C13.34 10.73 13.9 11 14.5 11H20V12.08L17.43 18H9.34C9.16 18 9 17.84 9 17.66V9.82L13.11 5.72ZM14 2L7.59 8.41C7.21 8.79 7 9.3 7 9.83V17.66C7 18.95 8.05 20 9.34 20H17.44C18.15 20 18.8 19.63 19.16 19.03L21.83 12.88C21.94 12.63 22 12.36 22 12.08V11C22 9.9 21.1 9 20 9H14.5L15.42 4.35C15.47 4.13 15.44 3.89 15.34 3.69C15.11 3.24 14.82 2.83 14.46 2.47L14 2ZM4 9H2V20H4C4.55 20 5 19.55 5 19V10C5 9.45 4.55 9 4 9Z" fill="#323232"/>
</g>
<defs>
<clipPath id="clip0_147_4882">
<rect width="24" height="24" fill="white"/>
</clipPath>
</defs>
</svg>
